build/img/icon-fb.svg

<svg width="28" height="28" viewBox="0 0 28 28" fill="none" xmlns="http://www.w3.org/2000/svg">
<path fill-rule="evenodd" clip-rule="evenodd" d="M27.8696 14C27.8696 6.54462 21.8258 0.5 14.3696 0.5C6.91342 0.5 0.869629 6.54462 0.869629 14C0.869629 21.4562 6.91332 27.5 14.3696 27.5C21.8258 27.5 27.8696 21.4563 27.8696 14ZM17.7532 9.79395H16.0134C15.545 9.79395 15.216 10.1905 15.216 10.685V11.4604H17.7008L17.2984 13.9772H15.2152V20.7238H12.6721V13.9772H10.9846V11.4604H12.6721V10.177H12.6772C12.7219 8.71392 13.2298 7.32092 15.708 7.23315V7.22388H17.7532V9.79395Z"/>
</svg>

<svg width="28" height="28" fill="none" xmlns="http://www.w3.org/2000/svg"><path clip-rule="evenodd" d="M27.87 14c0-7.455-6.044-13.5-13.5-13.5C6.913.5.87 6.545.87 14c0 7.456 6.043 13.5 13.5 13.5 7.456 0 13.5-6.044 13.5-13.5zM17.753 9.794h-1.74c-.468 0-.797.396-.797.891v.775h2.485l-.403 2.517h-2.083v6.747h-2.543v-6.747h-1.687V11.46h1.687v-1.283h.005c.045-1.463.553-2.856 3.031-2.944v-.01h2.045v2.571z"/></svg>
